X: 20712
Q: "Briskly."
M: 6/8
L: 1/8
K: G
d/d/ |\
gag fef | g2e d2B/d/ |\
d>ed d>ed | d>ed d>ef |\
g>ag g>ag | f2d d2d/d/ |\
e>fg dBd | G2g g2 |]


